X:1
T: Quick March
B: James Campbell's Collection 1798
M: 6/8
L: 1/8
Z: source from Highland Music Trust, chords by Gary Whaley
K:F
(c/B/) [|: "F" Acf "C7" egb | "F" agf "C7" edc | \
"Bb" dBd "F" cAc  | "C7" dBG G2 (c/B/) |
| "F" Acf "C7" egb | "F" agf "C7" edc | \
"Bb" dba "C7" gfe | "F" fff f2 :|]
(e/f/) [|: "C" gec ccc | "F" afc ccc | \
"Bb" (B/c/d)B "F" (A/B/c)A | "C" dBG G2 (c/B/) |
| "F" AFC A,CF | AFA cAF | "Bb" DBA "C" GFE | "F" FFF F2 :|]

